Numix/48/actions/distribute-vertical-center.svg

<?xml version="1.0" encoding="UTF-8" standalone="no"?>
<svg
   xmlns:dc="http://purl.org/dc/elements/1.1/"
   xmlns:cc="http://creativecommons.org/ns#"
   xmlns:rdf="http://www.w3.org/1999/02/22-rdf-syntax-ns#"
   xmlns:svg="http://www.w3.org/2000/svg"
   xmlns="http://www.w3.org/2000/svg"
   xmlns:sodipodi="http://sodipodi.sourceforge.net/DTD/sodipodi-0.dtd"
   xmlns:inkscape="http://www.inkscape.org/namespaces/inkscape"
   width="48"
   height="48"
   viewBox="0 0 48 48"
   id="svg2"
   version="1.1"
   inkscape:version="0.91 r"
   sodipodi:docname="distribute-vertical-center.svg">
  <metadata
     id="metadata14">
    <rdf:RDF>
      <cc:Work
         rdf:about="">
        <dc:format>image/svg+xml</dc:format>
        <dc:type
           rdf:resource="http://purl.org/dc/dcmitype/StillImage" />
        <dc:title></dc:title>
      </cc:Work>
    </rdf:RDF>
  </metadata>
  <defs
     id="defs12">
    <inkscape:perspective
       sodipodi:type="inkscape:persp3d"
       inkscape:vp_x="0 : 24 : 1"
       inkscape:vp_y="0 : 1000 : 0"
       inkscape:vp_z="48 : 24 : 1"
       inkscape:persp3d-origin="24 : 16 : 1"
       id="perspective4184" />
    <path
       d="m 14 12 l 20 0 c 1.105 0 2 0.895 2 2 l 0 20 c 0 1.105 -0.895 2 -2 2 l -20 0 c -1.105 0 -2 -0.895 -2 -2 l 0 -20 c 0 -1.105 0.895 -2 2 -2 m 0 0"
       id="SVGCleanerId_0" />
  </defs>
  <sodipodi:namedview
     pagecolor="#ffffff"
     bordercolor="#666666"
     borderopacity="1"
     objecttolerance="10"
     gridtolerance="10"
     guidetolerance="10"
     inkscape:pageopacity="0"
     inkscape:pageshadow="2"
     inkscape:window-width="1920"
     inkscape:window-height="1056"
     id="namedview10"
     showgrid="true"
     inkscape:zoom="11.313708"
     inkscape:cx="4.1465359"
     inkscape:cy="31.068013"
     inkscape:window-x="0"
     inkscape:window-y="24"
     inkscape:window-maximized="1"
     inkscape:current-layer="svg2">
    <inkscape:grid
       type="xygrid"
       id="grid4207" />
  </sodipodi:namedview>
  <rect
     style="opacity:1;fill:#268bd2;fill-opacity:1;fill-rule:nonzero;stroke:none;stroke-width:2;stroke-linecap:butt;stroke-linejoin:miter;stroke-miterlimit:4;stroke-dasharray:none;stroke-dashoffset:0;stroke-opacity:1"
     id="rect4147"
     width="2"
     height="36"
     x="12"
     y="-42"
     transform="matrix(0,1,-1,0,0,0)" />
  <rect
     y="-42"
     x="34"
     height="36"
     width="2"
     id="rect4149"
     style="opacity:1;fill:#268bd2;fill-opacity:1;fill-rule:nonzero;stroke:none;stroke-width:2;stroke-linecap:butt;stroke-linejoin:miter;stroke-miterlimit:4;stroke-dasharray:none;stroke-dashoffset:0;stroke-opacity:1"
     transform="matrix(0,1,-1,0,0,0)" />
  <path
     transform="matrix(2.0207259,0,0,-1.6666666,-29.034628,67.669583)"
     d="m 35.895332,31.001751 -1.73205,-3 3.464101,0 z"
     inkscape:randomized="0"
     inkscape:rounded="0"
     inkscape:flatsided="true"
     sodipodi:arg2="2.6179939"
     sodipodi:arg1="1.5707963"
     sodipodi:r2="1"
     sodipodi:r1="2"
     sodipodi:cy="29.001751"
     sodipodi:cx="35.895332"
     sodipodi:sides="3"
     id="path4147"
     style="opacity:1;fill:#268bd2;fill-opacity:1;fill-rule:nonzero;stroke:none;stroke-width:2;stroke-linecap:butt;stroke-linejoin:miter;stroke-miterlimit:4;stroke-dasharray:none;stroke-dashoffset:0;stroke-opacity:1"
     sodipodi:type="star"
     inkscape:transform-center-y="-0.83333222" />
  <path
     sodipodi:type="star"
     style="opacity:1;fill:#268bd2;fill-opacity:1;fill-rule:nonzero;stroke:none;stroke-width:2;stroke-linecap:butt;stroke-linejoin:miter;stroke-miterlimit:4;stroke-dasharray:none;stroke-dashoffset:0;stroke-opacity:1"
     id="path4153"
     sodipodi:sides="3"
     sodipodi:cx="35.895332"
     sodipodi:cy="29.001751"
     sodipodi:r1="2"
     sodipodi:r2="1"
     sodipodi:arg1="1.5707963"
     sodipodi:arg2="2.6179939"
     inkscape:flatsided="true"
     inkscape:rounded="0"
     inkscape:randomized="0"
     d="m 35.895332,31.001751 -1.73205,-3 3.464101,0 z"
     transform="matrix(2.0207259,0,0,1.6666666,-29.034628,-19.669583)"
     inkscape:transform-center-y="0.83333175" />
  <rect
     style="opacity:1;fill:#ffffff;fill-opacity:1;fill-rule:nonzero;stroke:none;stroke-width:2;stroke-linecap:butt;stroke-linejoin:miter;stroke-miterlimit:4;stroke-dasharray:none;stroke-dashoffset:0;stroke-opacity:1"
     id="rect4143"
     width="10"
     height="26"
     x="8"
     y="-37"
     transform="matrix(0,1,-1,0,0,0)" />
  <rect
     y="-35"
     x="30"
     height="22"
     width="10"
     id="rect4145"
     style="opacity:1;fill:#ffffff;fill-opacity:1;fill-rule:nonzero;stroke:none;stroke-width:2;stroke-linecap:butt;stroke-linejoin:miter;stroke-miterlimit:4;stroke-dasharray:none;stroke-dashoffset:0;stroke-opacity:1"
     transform="matrix(0,1,-1,0,0,0)" />
  <path
     style="opacity:1;fill:#888888;fill-opacity:1;stroke:none;stroke-width:2;stroke-linecap:butt;stroke-linejoin:miter;stroke-miterlimit:4;stroke-dasharray:none;stroke-opacity:1"
     d="M 10.000001,7.0000001 10.000001,19 38,19 38,7.0000001 Z m 2,2 23.999999,0 L 36,17 12.000001,17 Z m 0,19.9999999 0,12 L 36,41 36,29 Z M 14,31 l 20,0 0,8 -20,0 z"
     id="rect4135-5"
     inkscape:connector-curvature="0"
     sodipodi:nodetypes="cccccccccccccccccccc" />
</svg>

<svg xmlns="http://www.w3.org/2000/svg" viewBox="0 0 48 48">
 <rect width="2" height="36" x="12" y="-42" transform="matrix(0,1,-1,0,0,0)" style="fill:#268bd2;opacity:1;fill-opacity:1;stroke:none;fill-rule:nonzero"/>
 <rect y="-42" x="34" height="36" width="2" transform="matrix(0,1,-1,0,0,0)" style="fill:#268bd2;opacity:1;fill-opacity:1;stroke:none;fill-rule:nonzero"/>
 <path transform="matrix(2.0207259,0,0,-1.6666666,-29.034628,67.669583)" d="m 35.895 31 -1.732 -3 3.464 0 z" style="fill:#268bd2;opacity:1;fill-opacity:1;stroke:none;fill-rule:nonzero"/>
 <path d="m 35.895 31 -1.732 -3 3.464 0 z" transform="matrix(2.0207259,0,0,1.6666666,-29.034628,-19.669583)" style="fill:#268bd2;opacity:1;fill-opacity:1;stroke:none;fill-rule:nonzero"/>
 <rect width="10" height="26" x="8" y="-37" transform="matrix(0,1,-1,0,0,0)" style="fill:#fff;opacity:1;fill-opacity:1;stroke:none;fill-rule:nonzero"/>
 <rect y="-35" x="30" height="22" width="10" transform="matrix(0,1,-1,0,0,0)" style="fill:#fff;opacity:1;fill-opacity:1;stroke:none;fill-rule:nonzero"/>
 <path d="m 10 7 0 12 28 0 0 -12 m -26 2 24 0 l 0 8 -24 0 m 0 12 0 12 l 24 0 0 -12 m -22 2 l 20 0 0 8 -20 0 z" style="fill:#888;opacity:1;fill-opacity:1;stroke:none"/>
</svg>
